X: 0
T: Sportsman's Hornpipe
C: Trad
O: North-West England, Joseph Kershaw ms.
M: 4/4
L: 1/8
K: Emin
|:"Am"c2(3ccc "G"B2BA | GABc dBAG | "Am"c2(3ccc "G"B2BA | "Am"E2A2 "D"A4 | 
 "Am"c2(3ccc "G"B2BA | GABc dBAG | "C"gfge "Em"dBAG | "Am"E2A2 A4 :|
|: "Am"ABcd efge | "D"afdf "Em"edcB | "Am"ABcd efge | "D"afdf "Em"e2fg | 
 "Am"a2af "G"g2ge | "C/G"c2ce "G"dBG2 | "C"c2(3ccc "Em"BABG | "Am"E2A2 A4 :| 